X:1
T:Dark Skies, Bright Stars
C:David A. Kaynor May 2015
M:4/4
L:1/8
K:G
DF|"G"G3AG2B,D|"Am"CEAG "D"FDD2|"G"G3A"Em"G2B,D|"Am"CEAB "D"A2DF|
"G"G3AG2B,D|"Am"CEAG "D"FDD2|"G"BGDB, "Am"C2B,C|"D"DGGF "G"G2:|
Bd|"G"gage dgBd|"Am"cEAG "D"F[AD][A2D2]|"G"BABd "Em"g2ag|"Am"faeA "D"d2ef|
"G"gage dgBd|"Am"cEAG "D"FAdc|"G"BGDB, "Am"C2B,C|"D"DGGF "G"G2:|

